X: 4
T: the Tempest
T: Ap Shenkin
R: jig
Z: 2007 John Chambers <jc:trillian.mit.edu>
B: NEFR #4
M: 6/8
L: 1/8
K: G
dc !segno!\
| "G"B2B Bgf | "C"e2e efg | "G"ded "Em"dcB | "Am"cBc "D7"Adc \
| "G"B2B Bgf | "C"e2e efg | "G"ded "D7"cBA | "G"GAG G :|
ga \
| "G"b2g "D7"a2f | "C"gfe "D7"d2c | "G"Bdg "G"dBG | "D7"FAA A2ga \
| "G"b2g "D7"a2f | "C"gfe "D7"agf | "G"bag "A7"fge | "D7"dgf ed!segno!c |]


